X:1
T:Darley, 88.888
T:Darley, 88.888
T:William Henry Westray Darley (1801-1872)
T:Public Domain Courtesy of the Cyber Hymnal™
C:William Henry Westray Darley (1801-1872)
Z:Public Domain
Z:Courtesy of the Cyber Hymnal™
%%score ( 1 2 ) ( 3 4 )
L:1/8
Q:1/4=95
M:2/4
K:Bb
V:1 treble 
V:2 treble 
V:3 bass 
V:4 bass 
V:1
 [FB]2 F[Fd] | [Fd][Fc] [FB][FA] | [FB]4 | B2 [FA][_EG] | [Fc]2 FB | ([FA][CG]) (F=E) | [CF]2 z2 | %7
 [Fd]2 [Fc][FA] | [FB]3 F | [Fd]2 (cA) | [FB]2 z [DB] | [DB]2 ([DF][Fd]) | [Fd][Ec] [DB][CA] | %13
 [DB]2 z [Bd] | [Bd]2 ([df][ce]) | [Bd]3 [FB] | !fermata![Gc]2 !fermata![EA]2 | [DB]4 |] %18
V:2
 x2 F x | x4 | x4 | (=EG) x2 | x2 F2 | x2 C2 | x4 | x4 | x3 F | x2 F2 | x4 | x4 | x4 | x4 | x4 | %15
 x4 | x4 | x4 |] %18
V:3
 [B,D]2 [B,D][B,D] | [F,D][F,E] [F,D][F,C] | [B,,D]4 | [C,C]2 [C,C][B,,C] | [A,,C]2 [B,,D]2 | %5
 (CB,) (A,G,) | [F,A,]2 (ED/C/) | B,2 [B,E][B,C] | [B,D]3 [B,,D] | [B,,D]2 (EC) | [B,,D]2 z2 | z4 | %12
 z4 | z3 [B,F] | [B,F]2 [B,F]2 | [B,F]3 [B,,D] | !fermata![E,C]2 [F,C]2 | [B,,D]4 |] %18
V:4
 x4 | x4 | x4 | x4 | x4 | C,2 C,2 | x4 | B,2 x2 | x4 | x2 B,,2 | x4 | x4 | x4 | x4 | x4 | x4 | x4 | %17
 x4 |] %18

